X:1
T:Anthes, 76.76 D
T:Anthes, 76.76 D
T:Attributed to Friedrich Konrad Anthes, 1847
T:Public Domain Courtesy of the Cyber Hymnal™
C:Attributed to Friedrich Konrad Anthes, 1847
Z:Public Domain
Z:Courtesy of the Cyber Hymnal™
%%score ( 1 2 ) ( 3 4 )
L:1/8
Q:1/4=115
M:4/4
K:A
V:1 treble 
V:2 treble 
V:3 bass 
V:4 bass 
V:1
 [CE]2 | [EA]2 [EG]2 [CA]2 [EB]2 | [Ec]4 [CA]2 [EA]2 | [DF]2 [Fd]2 [Ec]2 [EB]2 | [CA]6 [CE]2 | %5
 [EA]2 [EG]2 [CA]2 [EB]2 | [Ec]4 [CA]2 [EA]2 | [DF]2 [Fd]2 [Ec]2 [EB]2 | [CA]6 [Ec]2 | %9
 [EB]2 [EG]2 [FA]2 [^DF]2 | [EG]4 E2 [B,E]2 | [B,F]2 [B,G]2 [EA]2 [EB]2 | [Ec]6 [CE]2 | %13
 [FA]2 [EG]2 [CF]2 [CE]2 | A4 [EB]2 [Ec]2 | [Fd]2 [FB]2 [EA]2 [EG]2 | [EA]6 |] %17
V:2
 x2 | x8 | x8 | x8 | x8 | x8 | x8 | x8 | x8 | x8 | x4 E2 x2 | x8 | x8 | x8 | (E2 ^D2) x4 | x8 | %16
 x6 |] %17
V:3
 [A,,A,]2 | [A,,C]2 [E,B,]2 [F,A,]2 [E,G,]2 | [A,,A,]4 [A,,E,]2 [C,A,]2 | %3
 [D,A,]2 [B,,A,]2 [E,A,]2 [E,G,]2 | [A,,A,]6 [A,,A,]2 | [A,,C]2 [E,B,]2 [F,A,]2 [E,G,]2 | %6
 [A,,A,]4 [A,,E,]2 [C,A,]2 | [D,A,]2 [B,,A,]2 [E,A,]2 [E,G,]2 | [A,,A,]6 [A,,A,]2 | %9
 [G,,B,]2 [C,C]2 [F,,C]2 [B,,B,]2 | [E,B,]4 [E,G,]2 [E,G,]2 | [^D,F,]2 E,2 [C,E,]2 [B,,G,]2 | %12
 [A,,A,]6 [A,,A,]2 | [F,,C]2 [G,,B,]2 [A,,A,]2 [^A,,F,]2 | (F,2 B,2) [E,G,]2 [A,,A,]2 | %15
 [D,A,]2 [D,D]2 [E,C]2 [E,B,]2 | [A,,C]6 |] %17
V:4
 x2 | x8 | x8 | x8 | x8 | x8 | x8 | x8 | x8 | x8 | x8 | x2 E,2 x4 | x8 | x8 | B,,4 x4 | x8 | x6 |] %17

